src/travel-places/sky-weather/1F31A.svg

<svg id="emoji" viewBox="0 0 72 72" xmlns="http://www.w3.org/2000/svg">
  <g id="grid">
    <path fill="#b2b2b2" d="M68,4V68H4V4H68m4-4H0V72H72V0Z"/>
    <path fill="none" stroke="#00a4ff" stroke-miterlimit="10" stroke-width="0.1" d="M12.923,10.9583H59.0769A1.9231,1.9231,0,0,1,61,12.8814V59.0352a1.9231,1.9231,0,0,1-1.9231,1.9231H12.9231A1.9231,1.9231,0,0,1,11,59.0352V12.8813A1.923,1.923,0,0,1,12.923,10.9583Z"/>
    <rect x="16" y="4" rx="2.2537" width="40" height="64" fill="none" stroke="#00a4ff" stroke-miterlimit="10" stroke-width="0.1"/>
    <rect x="16" y="4" rx="2.2537" width="40" height="64" transform="translate(72) rotate(90)" fill="none" stroke="#00a4ff" stroke-miterlimit="10" stroke-width="0.1"/>
    <circle cx="36" cy="36" r="29" fill="none" stroke="#00a4ff" stroke-miterlimit="10" stroke-width="0.1"/>
  </g>
  <g id="color">
    <circle cx="36" cy="36" r="28" fill="#3f3f3f" stroke="#3f3f3f" stroke-linecap="round" stroke-linejoin="round" stroke-width="2"/>
    <path stroke="#000" stroke-miterlimit="10" stroke-width="0.204" opacity="0.4" d="M29,62c20.0033,0,16.6634-52,16.6634-52s24.9582,7,16.6388,35S13.4011,62,29,62Z"/>
    <circle cx="26.5" cy="27.5" r="5" fill="#fff" stroke="none" stroke-linecap="round" stroke-linejoin="round"/>
    <circle cx="45.5" cy="27.5" r="5" fill="#fff" stroke="none"/>
  </g>
  <g id="line">
    <rect x="34" y="37" width="4" height="2" stroke="#000" stroke-linecap="round" stroke-linejoin="round" stroke-width="0.25"/>
    <path fill="none" stroke="#000" stroke-linecap="round" stroke-linejoin="round" stroke-width="2" d="M36,64A28,28,0,0,1,36,8"/>
    <path fill="none" stroke="#000" stroke-linecap="round" stroke-linejoin="round" stroke-width="2" d="M36,8a28,28,0,0,1,0,56"/>
    <path fill="none" stroke="#000" stroke-linecap="round" stroke-linejoin="round" stroke-width="2" d="M36,39.5c1.1046,0,2.5-.8954,2.5-2H34A2,2,0,0,0,36,39.5Z"/>
    <path fill="none" stroke="#000" stroke-linecap="round" stroke-linejoin="round" stroke-width="2" d="m26.92 45.92s3.705 3.389 9.652 3.771c6.942 0.3136 10.42-3.695 10.42-3.695"/>
    <circle cx="26.5" cy="27.5" r="5" fill="none" stroke="#000" stroke-linecap="round" stroke-linejoin="round" stroke-width="2"/>
    <circle cx="45.5" cy="27.5" r="5" fill="none" stroke="#000" stroke-linecap="round" stroke-linejoin="round" stroke-width="2"/>
    <circle cx="45.5" cy="27.5" r="5" fill="none" stroke="#000" stroke-linecap="round" stroke-linejoin="round"/>
    <circle cx="47.75" cy="27.75" r="1.75" stroke="#000" stroke-linecap="round" stroke-linejoin="round" stroke-width="2"/>
    <circle cx="26.5" cy="27.5" r="5" fill="none" stroke="#000" stroke-linecap="round" stroke-linejoin="round"/>
    <circle cx="28.75" cy="27.75" r="1.75" stroke="#000" stroke-linecap="round" stroke-linejoin="round" stroke-width="2"/>
  </g>
</svg>

<svg viewBox="0 0 72 72" xmlns="http://www.w3.org/2000/svg"><path fill="#b2b2b2" d="M68 4v64H4V4h64m4-4H0v72h72V0z"/><path fill="none" stroke="#00a4ff" stroke-miterlimit="10" stroke-width=".1" d="M12.923 10.958h46.154A1.923 1.923 0 0161 12.881v46.154a1.923 1.923 0 01-1.923 1.923H12.923A1.923 1.923 0 0111 59.035V12.881a1.923 1.923 0 011.923-1.923z"/><rect x="16" y="4" rx="2.254" width="40" height="64" fill="none" stroke="#00a4ff" stroke-miterlimit="10" stroke-width=".1"/><rect x="16" y="4" rx="2.254" width="40" height="64" transform="rotate(90 36 36)" fill="none" stroke="#00a4ff" stroke-miterlimit="10" stroke-width=".1"/><circle cx="36" cy="36" r="29" fill="none" stroke="#00a4ff" stroke-miterlimit="10" stroke-width=".1"/><g stroke-linecap="round" stroke-miterlimit="10" stroke-width="6" stroke="#fff" fill="none" stroke-linejoin="round"><path d="M34 37h4v2h-4zm2 27a28 28 0 010-56m0 0a28 28 0 010 56"/><path d="M36 39.5c1.105 0 2.5-.895 2.5-2H34a2 2 0 002 2zm-9.08 6.42s3.705 3.389 9.652 3.771c6.942.314 10.42-3.695 10.42-3.695"/><circle cx="26.5" cy="27.5" r="5"/><circle cx="45.5" cy="27.5" r="5"/><circle cx="45.5" cy="27.5" r="5"/><circle cx="47.75" cy="27.75" r="1.75"/><circle cx="26.5" cy="27.5" r="5"/><circle cx="28.75" cy="27.75" r="1.75"/></g><circle cx="36" cy="36" r="28" fill="#3f3f3f" stroke="#3f3f3f" stroke-linecap="round" stroke-linejoin="round" stroke-width="2"/><path stroke="#000" stroke-miterlimit="10" stroke-width=".204" opacity=".4" d="M29 62c20.003 0 16.663-52 16.663-52s24.959 7 16.64 35S13.4 62 29 62z"/><circle cx="26.5" cy="27.5" r="5" fill="#fff"/><circle cx="45.5" cy="27.5" r="5" fill="#fff"/><g stroke="#000" stroke-linecap="round" stroke-linejoin="round"><path stroke-width=".25" d="M34 37h4v2h-4z"/><path fill="none" stroke-width="2" d="M36 64a28 28 0 010-56m0 0a28 28 0 010 56"/><path fill="none" stroke-width="2" d="M36 39.5c1.105 0 2.5-.895 2.5-2H34a2 2 0 002 2zm-9.08 6.42s3.705 3.389 9.652 3.771c6.942.314 10.42-3.695 10.42-3.695"/><circle cx="26.5" cy="27.5" r="5" fill="none" stroke-width="2"/><circle cx="45.5" cy="27.5" r="5" fill="none" stroke-width="2"/><circle cx="45.5" cy="27.5" r="5" fill="none"/><circle cx="47.75" cy="27.75" r="1.75" stroke-width="2"/><circle cx="26.5" cy="27.5" r="5" fill="none"/><circle cx="28.75" cy="27.75" r="1.75" stroke-width="2"/></g></svg>
